X:1
T: Alexander Ramsay
C:Alexander Walker
R:Reel
I:speed 232
Q:232
Q:232
K:G
M:4/4
L:1/8
|:c|BG G2 BG dG|ec dB cA Ac|BG G2 BG dB|cA af g3c|
BG G2 BG dG|ec dB cA Ac|BG G2 BG dB|cA af g3f|
g2 bg eg db|ca Bg AD FD|GF ED ED CB,|A,A DF G3f|
g2 bg eg db|ca Bg AD FD|G2 BG ce dc|Ba ef g3:|
